X:213
M:C
L:1/8
Q:1/4=140
K:A Minor
g>ed>e c<A A:|
f|e>cd>e A/A/A f2|e>cd>e c<G G2|e>cd>e A/A/A f2|
e>cd>e c<A Af|e>cd>e A/A/A f2|e>cd>e c<G G>B|c>BA>B c>d e<a|
g>cd>e c<AA||
z|G>cE>c G>cE>c|e>cd>e cG G2|G>cE>c G>cE>a|g>ed>e c<A A2|
(3aba (3gag (3ege c2|(3ege (3ded c<G G>B|c>BA>B c>d e<a|g>ed>e c<AA||

